icon-themes/breeze_svg/svx/res/fr012.svg

<svg viewBox="0 0 24 24" xmlns="http://www.w3.org/2000/svg"><path d="m4 3v1 7 1 7 1h17v-1-7-1-7-1zm1 1h7v7h-7zm8 0h7v7h-7zm-8 8h7v7h-7zm8 0h7v7h-7z" fill="#f47750"/></svg>

<svg xmlns="http://www.w3.org/2000/svg" viewBox="0 0 24 24">
 <path 
     style="fill:#f47750" 
     d="M 4 3 L 4 4 L 4 11 L 4 12 L 4 19 L 4 20 L 21 20 L 21 19 L 21 12 L 21 11 L 21 4 L 21 3 L 4 3 z M 5 4 L 12 4 L 12 11 L 5 11 L 5 4 z M 13 4 L 20 4 L 20 11 L 13 11 L 13 4 z M 5 12 L 12 12 L 12 19 L 5 19 L 5 12 z M 13 12 L 20 12 L 20 19 L 13 19 L 13 12 z "
     />
 </svg>
